X: 2
T:Dublin Streets
% Nottingham Music Database
S:O'Neill
M:9/8
K:Em
P:A
|:B|"Em"G2A BGE BGE|"D"F2G AFD AFD|"Em"G2A BGE BGE| [1"G"dcB "B7"AGF "Em"E2:| [2"G"dcB "B7"AGF "Em"E3:|
P:B
"Em"e2f g2a bge|"D"d2e f2g afd|"Em"e2f g2a bge|"G"dcB "B7"AGF "Em"E2|<end>
<start>
